flaticon/web-design/chat.svg

<svg xmlns="http://www.w3.org/2000/svg" width="32" height="32" viewBox="0 0 24 24">
    <path d="M 20.363281 14.640625 C 22.519531 13.097656 23.796875 10.699219 23.796875 8.160156 C 23.796875 3.660156 19.867188 0 15.03125 0 C 12.1875 0 9.53125 1.28125 7.882812 3.4375 L 0.582031 3.4375 C 0.371094 3.4375 0.203125 3.605469 0.203125 3.816406 L 0.203125 19.78125 C 0.203125 19.992188 0.371094 20.160156 0.582031 20.160156 L 3.4375 20.160156 L 3.4375 23.621094 C 3.4375 23.773438 3.527344 23.910156 3.667969 23.96875 C 3.714844 23.992188 3.765625 24 3.816406 24 C 3.910156 24 4.007812 23.960938 4.078125 23.890625 L 7.910156 20.160156 L 14.726562 20.160156 C 14.9375 20.160156 15.105469 19.992188 15.105469 19.78125 L 15.105469 16.320312 C 15.820312 16.3125 16.527344 16.226562 17.210938 16.066406 L 21.0625 17.507812 C 21.105469 17.523438 21.152344 17.53125 21.195312 17.53125 C 21.300781 17.53125 21.402344 17.488281 21.476562 17.40625 C 21.582031 17.292969 21.605469 17.125 21.535156 16.984375 Z M 14.347656 19.402344 L 7.753906 19.402344 C 7.65625 19.402344 7.5625 19.441406 7.492188 19.507812 L 4.195312 22.722656 L 4.195312 19.78125 C 4.195312 19.570312 4.023438 19.402344 3.816406 19.402344 L 0.960938 19.402344 L 0.960938 4.195312 L 7.371094 4.195312 C 6.910156 4.964844 6.585938 5.804688 6.414062 6.667969 L 3.410156 6.667969 C 3.203125 6.667969 3.03125 6.839844 3.03125 7.046875 L 3.03125 8.261719 C 3.03125 8.46875 3.203125 8.640625 3.410156 8.640625 L 6.28125 8.640625 C 6.324219 9.347656 6.464844 10.042969 6.703125 10.710938 L 3.410156 10.710938 C 3.203125 10.710938 3.03125 10.882812 3.03125 11.089844 L 3.03125 12.304688 C 3.03125 12.511719 3.203125 12.683594 3.410156 12.683594 L 7.734375 12.683594 C 8.3125 13.488281 9.035156 14.1875 9.867188 14.753906 L 3.410156 14.753906 C 3.203125 14.753906 3.03125 14.921875 3.03125 15.132812 L 3.03125 16.34375 C 3.03125 16.554688 3.203125 16.722656 3.410156 16.722656 L 11.898438 16.722656 C 12.109375 16.722656 12.277344 16.554688 12.277344 16.34375 L 12.277344 15.910156 C 12.949219 16.113281 13.640625 16.246094 14.347656 16.296875 Z M 6.300781 7.425781 C 6.289062 7.578125 6.277344 7.730469 6.269531 7.882812 L 3.789062 7.882812 L 3.789062 7.425781 Z M 7.015625 11.46875 C 7.089844 11.625 7.167969 11.773438 7.253906 11.925781 L 3.789062 11.925781 L 3.789062 11.46875 Z M 11.226562 15.511719 C 11.324219 15.554688 11.421875 15.597656 11.519531 15.636719 L 11.519531 15.964844 L 3.789062 15.964844 L 3.789062 15.511719 Z M 17.371094 15.3125 C 17.296875 15.285156 17.21875 15.28125 17.144531 15.300781 C 16.457031 15.472656 15.746094 15.5625 15.03125 15.5625 C 14.945312 15.5625 14.851562 15.558594 14.742188 15.558594 C 13.804688 15.527344 12.894531 15.347656 12.03125 15.023438 C 11.839844 14.953125 11.648438 14.875 11.464844 14.789062 C 10.144531 14.179688 9.03125 13.246094 8.246094 12.089844 C 7.996094 11.726562 7.785156 11.339844 7.609375 10.941406 C 7.609375 10.941406 7.609375 10.941406 7.605469 10.9375 C 7.234375 10.085938 7.039062 9.183594 7.023438 8.253906 L 7.023438 8.222656 C 7.023438 8.199219 7.023438 8.179688 7.023438 8.160156 C 7.023438 7.808594 7.050781 7.457031 7.105469 7.105469 C 7.273438 6 7.703125 4.964844 8.378906 4.039062 C 9.871094 1.984375 12.359375 0.757812 15.03125 0.757812 C 19.449219 0.757812 23.039062 4.078125 23.039062 8.160156 C 23.039062 10.550781 21.777344 12.808594 19.667969 14.195312 C 19.507812 14.300781 19.449219 14.511719 19.535156 14.683594 L 20.425781 16.460938 Z M 17.371094 15.3125"/>
    <path d="M21.550781 5.253906C21.453125 5.070312 21.222656 5 21.039062 5.097656 20.855469 5.195312 20.785156 5.425781 20.882812 5.609375 21.308594 6.410156 21.523438 7.265625 21.523438 8.160156 21.523438 8.371094 21.695312 8.539062 21.902344 8.539062 22.113281 8.539062 22.28125 8.371094 22.28125 8.160156 22.28125 7.140625 22.035156 6.164062 21.550781 5.253906zM20.242188 3.542969C18.863281 2.238281 17.011719 1.515625 15.03125 1.515625 14.820312 1.515625 14.652344 1.683594 14.652344 1.894531 14.652344 2.105469 14.820312 2.273438 15.03125 2.273438 16.816406 2.273438 18.484375 2.921875 19.722656 4.09375 19.796875 4.164062 19.890625 4.199219 19.984375 4.199219 20.082031 4.199219 20.183594 4.160156 20.257812 4.082031 20.402344 3.929688 20.394531 3.6875 20.242188 3.542969zM14.628906 7.277344C13.804688 7.277344 13.136719 7.945312 13.136719 8.765625 13.136719 9.589844 13.804688 10.257812 14.628906 10.257812 15.449219 10.257812 16.117188 9.589844 16.117188 8.765625 16.117188 7.945312 15.449219 7.277344 14.628906 7.277344zM14.628906 9.5C14.222656 9.5 13.894531 9.171875 13.894531 8.765625 13.894531 8.363281 14.222656 8.035156 14.628906 8.035156 15.03125 8.035156 15.359375 8.363281 15.359375 8.765625 15.359375 9.171875 15.03125 9.5 14.628906 9.5zM18.667969 7.277344C17.847656 7.277344 17.179688 7.945312 17.179688 8.765625 17.179688 9.589844 17.847656 10.257812 18.667969 10.257812 19.492188 10.257812 20.160156 9.589844 20.160156 8.765625 20.160156 7.945312 19.492188 7.277344 18.667969 7.277344zM18.667969 9.5C18.265625 9.5 17.9375 9.171875 17.9375 8.765625 17.9375 8.363281 18.265625 8.035156 18.667969 8.035156 19.074219 8.035156 19.402344 8.363281 19.402344 8.765625 19.402344 9.171875 19.074219 9.5 18.667969 9.5zM10.585938 7.277344C9.761719 7.277344 9.09375 7.945312 9.09375 8.765625 9.09375 9.589844 9.761719 10.257812 10.585938 10.257812 11.40625 10.257812 12.074219 9.589844 12.074219 8.765625 12.074219 7.945312 11.40625 7.277344 10.585938 7.277344zM10.585938 9.5C10.179688 9.5 9.851562 9.171875 9.851562 8.765625 9.851562 8.363281 10.179688 8.035156 10.585938 8.035156 10.988281 8.035156 11.316406 8.363281 11.316406 8.765625 11.316406 9.171875 10.988281 9.5 10.585938 9.5zM10.585938 9.5"/>
</svg>

<svg xmlns="http://www.w3.org/2000/svg" width="32" height="32" viewBox="0 0 24 24">
    <path d="M20.363 14.64c2.157-1.542 3.434-3.94 3.434-6.48 0-4.5-3.93-8.16-8.766-8.16-2.844 0-5.5 1.281-7.148 3.438H.582a.377.377 0 0 0-.379.378v15.965c0 .211.168.38.379.38h2.856v3.46c0 .152.09.29.23.348a.328.328 0 0 0 .148.031c.094 0 .192-.04.262-.11l3.832-3.73h6.817c.21 0 .378-.168.378-.379v-3.46a9.701 9.701 0 0 0 2.106-.255l3.852 1.442a.377.377 0 0 0 .414-.102.373.373 0 0 0 .058-.422zm-6.015 4.762H7.754a.383.383 0 0 0-.262.106l-3.297 3.215V19.78a.38.38 0 0 0-.379-.379H.961V4.195h6.41a7.78 7.78 0 0 0-.957 2.473H3.41a.382.382 0 0 0-.379.379v1.215c0 .207.172.379.38.379h2.87c.043.707.184 1.402.422 2.07H3.41a.382.382 0 0 0-.379.379v1.215c0 .207.172.379.38.379h4.323a8.532 8.532 0 0 0 2.133 2.07H3.41a.38.38 0 0 0-.379.379v1.21c0 .212.172.38.38.38h8.487c.211 0 .38-.168.38-.38v-.433a9.495 9.495 0 0 0 2.07.387zM6.3 7.426c-.012.152-.024.304-.031.457H3.79v-.457zm.715 4.043c.074.156.152.304.238.457H3.789v-.457zm4.21 4.043c.098.043.196.086.294.125v.328H3.79v-.453zm6.145-.2a.375.375 0 0 0-.226-.011 8.723 8.723 0 0 1-2.114.261c-.086 0-.18-.003-.289-.003a8.49 8.49 0 0 1-3.277-.77 7.852 7.852 0 0 1-3.219-2.7c-.25-.362-.46-.75-.637-1.148l-.004-.004a6.974 6.974 0 0 1-.582-2.683v-.031-.063A6.932 6.932 0 0 1 8.378 4.04C9.872 1.984 12.36.758 15.032.758c4.418 0 8.008 3.32 8.008 7.402 0 2.39-1.262 4.649-3.371 6.035a.383.383 0 0 0-.133.489l.89 1.777zm0 0"/>
    <path d="M21.55 5.254a.38.38 0 0 0-.51-.156.38.38 0 0 0-.157.511c.426.801.64 1.657.64 2.551a.38.38 0 0 0 .758 0c0-1.02-.246-1.996-.73-2.906zm0 0M20.242 3.543c-1.379-1.305-3.23-2.027-5.21-2.027a.377.377 0 0 0-.38.379c0 .21.168.378.38.378 1.784 0 3.452.649 4.69 1.82a.38.38 0 0 0 .536-.011.382.382 0 0 0-.016-.539zm0 0M14.629 7.277a1.491 1.491 0 1 0 0 2.98 1.491 1.491 0 0 0 0-2.98zm0 2.223a.734.734 0 1 1-.002-1.467.734.734 0 0 1 .002 1.467zm0 0M18.668 7.277a1.49 1.49 0 1 0 .004 2.981 1.49 1.49 0 0 0-.004-2.98zm0 2.223a.733.733 0 1 1 .004-1.465.733.733 0 0 1-.004 1.465zm0 0M10.586 7.277a1.491 1.491 0 1 0 0 2.98 1.491 1.491 0 0 0 0-2.98zm0 2.223a.734.734 0 1 1-.002-1.467.734.734 0 0 1 .002 1.467zm0 0"/>
</svg>
